X:43
T:Grimstock (1)
M:6/8
L:1/8
K:G
"G" g2 f g2 d | "C" e>fg "D" f2 d | "Em" B>cd "C" e2 d | "D7" c2 "G" B "D7" A2 "G" G |
"G" g2 f g2 d | "C" e>fg "D" f2 d | "G" B>cd "C" e2 d | "D" c>BA "G" G3:|
|:"G"GGA BG"D"A | "Em" BGA BG"D"[AD] | "Em"GGB BG"D"A | "Em"BG"D"[AD] "G"G3 :|
%
%
